aliba_games/img/icon-visa.svg

<svg width="52" height="16" viewBox="0 0 52 16" fill="none" xmlns="http://www.w3.org/2000/svg">
<g style="mix-blend-mode:luminosity">
<path d="M20.8987 0L18.3327 15.9679H22.4342L24.9986 0H20.8987ZM33.2701 6.50444C31.8368 5.79666 30.9582 5.31896 30.9582 4.59506C30.9757 3.93687 31.7012 3.26256 33.3213 3.26256C34.6538 3.22909 35.6332 3.54224 36.3762 3.85381L36.7484 4.01993L37.306 0.679043C36.4959 0.365895 35.2114 0.0208524 33.6248 0.0208524C29.5745 0.0208524 26.7226 2.12667 26.7049 5.13847C26.6714 7.361 28.7467 8.59432 30.2998 9.33417C31.8864 10.0931 32.4265 10.5852 32.4265 11.2595C32.409 12.2948 31.1436 12.7725 29.9629 12.7725C28.3269 12.7725 27.448 12.5265 26.114 11.9496L25.5739 11.7035L25.0003 15.1755C25.9638 15.6038 27.7356 15.9807 29.5747 16C33.8791 16 36.6799 13.9261 36.7151 10.7163C36.7291 8.95548 35.6348 7.60686 33.2701 6.50444ZM47.8207 0.0494164H44.6475C43.6697 0.0494164 42.9267 0.330672 42.5033 1.33408L36.4111 15.9679H40.7154L41.9009 12.7996H46.7166L47.3316 15.9807H51.128L47.8207 0.0494164ZM43.0946 9.60228C43.1777 9.61034 44.7467 4.43034 44.7467 4.43034L45.9962 9.60228C45.9962 9.60228 43.9047 9.60228 43.0946 9.60228ZM14.9056 0L10.8873 10.8487L10.4495 8.70927C9.70653 6.24071 7.37711 3.55818 4.77747 2.22568L8.45709 15.952H12.7967L19.2452 0.00175141H14.9056V0Z" fill="#2394BC"/>
<path d="M9.0976 2.05965C8.78445 0.842102 7.78577 0.0209417 6.42944 0.00341797H0.0655386L0 0.298867C4.96428 1.52272 9.13107 5.28856 10.4828 8.8308L9.0976 2.05965Z" fill="#EFC75E"/>
</g>
</svg>

<svg width="52" height="16" fill="none" xmlns="http://www.w3.org/2000/svg"><g style="mix-blend-mode:luminosity"><path d="M20.899 0l-2.566 15.968h4.101L25 0h-4.1zM33.27 6.504c-1.433-.707-2.312-1.185-2.312-1.909.018-.658.743-1.332 2.363-1.332a7.137 7.137 0 0 1 3.055.59l.372.167.558-3.341a10.352 10.352 0 0 0-3.681-.658c-4.05 0-6.902 2.106-6.92 5.117-.034 2.223 2.042 3.456 3.595 4.196 1.586.76 2.126 1.251 2.126 1.925-.017 1.036-1.282 1.514-2.463 1.514-1.636 0-2.515-.246-3.849-.823l-.54-.246L25 15.175c.964.429 2.736.806 4.575.825 4.304 0 7.105-2.074 7.14-5.284.014-1.76-1.08-3.11-3.445-4.212zM47.82.05h-3.172c-.978 0-1.721.282-2.145 1.285l-6.092 14.634h4.304l1.186-3.168h4.816l.615 3.18h3.796L47.821.05zm-4.725 9.553c.083.008 1.652-5.172 1.652-5.172l1.25 5.172h-2.902zM14.905 0l-4.018 10.849-.438-2.14c-.742-2.468-3.072-5.15-5.672-6.483l3.68 13.726h4.34L19.245.002h-4.34V0z" fill="#2394BC"/><path d="M9.098 2.06C8.784.842 7.786.02 6.429.003H.066L0 .3c4.964 1.224 9.131 4.99 10.483 8.532L9.098 2.06z" fill="#EFC75E"/></g></svg>
